X: 7
T:Flodens Dd
M:2/4
L:1/16
C:Trad. Swedish
S:Vsen
K:Bb
d2d2 e2e2|d2d2 c2c2|d4 A4|BABd cedc|BcBG ABA^F|1G2 GD(3B,A,G,}:|2G8:|3G2
 GD(3B,A,G,}:|
4G8:|:A2|B3B AA^F2|A2D2 G3A|BABc d2d2|B3B AA^F2|
A2D2 G3A|BABc d2d2|e3d cdcB|ABAG ^FGAF|G6:|
